!!!OTL: HOLDES GRUEN WIE LIEB ICH DICH
!!!ARE: Europa, Mitteleuropa, Deutschland, Hessen, Wetzlar, Dutenhofen
!!!SCT: E1795
!!!YEM: Copyright 1995, estate of Helmut Schaffrath.
**kern
*ICvox
*Ivox
*M4/4
*k[f#c#]
*D:
{8.a
16f#
=1
4.d
8d
4d
8.g
16f#
=2
2e
4r}
{8.g
16e
=3
4.c#
8a
4a
8.b
16a
=4
2f#
4r}
{8.d
16f#
=5
4.a
8a
4a
8f#
8d
=6
2b
4r}
{8g
8b
=7
8a
8dd
8f#
8b
8a
8e
8g
8c#
=8
2d
4r}
{8.d
16f#
=9
4.a
8a
4a
8f#
8d
=10
2b
4r}
{8g
8b
=11
8a
8dd
8f#
8b
8a
8e
8g
8c#
=12
2d
4r}
==
!!!AGN: Natur - Lied
!!!ONB: ESAC (Essen Associative Code) Database: ERK3
!!!AMT: simple quadruple
!!!AIN: vox
!!!EED: Helmut Schaffrath
!!!EEV: 1.0
*-
